packages/icons/raw/shadcn/nut-off.svg

<svg width="24" height="24" viewBox="0 0 24 24" fill="none" xmlns="http://www.w3.org/2000/svg">
<path d="M12 4V2" stroke="black" stroke-width="2" stroke-linecap="round" stroke-linejoin="round"/>
<path d="M5 10V14C5.00017 15.5569 5.51905 17.0693 6.47468 18.2984C7.4303 19.5275 8.7682 20.4031 10.277 20.787C10.689 20.891 11.079 21.079 11.379 21.379L12 22L12.621 21.379C12.921 21.079 13.311 20.891 13.723 20.787C15.4162 20.3557 16.8873 19.3075 17.848 17.848" stroke="black" stroke-width="2" stroke-linecap="round" stroke-linejoin="round"/>
<path d="M19 10V13.343" stroke="black" stroke-width="2" stroke-linecap="round" stroke-linejoin="round"/>
<path d="M12 12C10.651 11.427 10.095 10.995 9.5 10C8.954 10.902 8.452 11.353 7 12C5.982 11.356 5.54 10.92 5 10C3.972 10.71 3.31 10.918 2 11C3.081 9.952 3.757 8.97 4 8C4.194 7.224 4.84 6.449 5.79 5.79M17.444 11.787C18.331 11.33 18.724 10.896 19 10C20.032 10.916 20.683 11.157 22 11C20.703 9.964 20.242 8.97 20 8C19.5 6 16 4 12 4C11.26 4 10.539 4.068 9.85 4.192" stroke="black" stroke-width="2" stroke-linecap="round" stroke-linejoin="round"/>
<path d="M2 2L22 22" stroke="black" stroke-width="2" stroke-linecap="round" stroke-linejoin="round"/>
</svg>

<!-- @license lucide-static v1.23.0 - ISC -->
<svg
  class="lucide lucide-nut-off"
  xmlns="http://www.w3.org/2000/svg"
  width="24"
  height="24"
  viewBox="0 0 24 24"
  fill="none"
  stroke="currentColor"
  stroke-width="2"
  stroke-linecap="round"
  stroke-linejoin="round"
>
  <path d="M12 4V2" />
  <path d="M5 10v4a7.004 7.004 0 0 0 5.277 6.787c.412.104.802.292 1.102.592L12 22l.621-.621c.3-.3.69-.488 1.102-.592a7.01 7.01 0 0 0 4.125-2.939" />
  <path d="M19 10v3.343" />
  <path d="M12 12c-1.349-.573-1.905-1.005-2.5-2-.546.902-1.048 1.353-2.5 2-1.018-.644-1.46-1.08-2-2-1.028.71-1.69.918-3 1 1.081-1.048 1.757-2.03 2-3 .194-.776.84-1.551 1.79-2.21m11.654 5.997c.887-.457 1.28-.891 1.556-1.787 1.032.916 1.683 1.157 3 1-1.297-1.036-1.758-2.03-2-3-.5-2-4-4-8-4-.74 0-1.461.068-2.15.192" />
  <line x1="2" x2="22" y1="2" y2="22" />
</svg>
